packages/astro-components-stencil/src/icons/flag.svg

<svg xmlns="http://www.w3.org/2000/svg" viewBox="0 0 24 24"><g xmlns="http://www.w3.org/2000/svg" id="flag" fill-rule="nonzero">
            <path d="M14.4 6l-.24-1.2c-.09-.46-.5-.8-.98-.8H6c-.55 0-1 .45-1 1v15c0 .55.45 1 1 1s1-.45 1-1v-6h5.6l.24 1.2c.09.47.5.8.98.8H19c.55 0 1-.45 1-1V7c0-.55-.45-1-1-1h-4.6z"/>
        </g></svg>

<svg width="24" height="24" viewBox="0 0 24 24" fill="none" xmlns="http://www.w3.org/2000/svg">
<path d="M14.4 6L14.16 4.8C14.07 4.34 13.66 4 13.18 4H6C5.45 4 5 4.45 5 5V20C5 20.55 5.45 21 6 21C6.55 21 7 20.55 7 20V14H12.6L12.84 15.2C12.93 15.67 13.34 16 13.82 16H19C19.55 16 20 15.55 20 15V7C20 6.45 19.55 6 19 6H14.4Z" fill="black"/>
</svg>
